X:215
T:Nellie Gray
C:Emory Lester
N:From "Pale Rider" Transcribed by Steve Keating
L:1/8
Q:1/4=220
M:4/4
K:A
z8 | z2 Ac de f2 | "D"fa aa a2 ga | f2 fg ag fg | "A"e2 {^d}e2 e2 ef | ed cB AB ce | 
{d}e2 a2 ef af | ed ec d2 c2 | "E"B2 Bc BF GB | e2 gf ed cd | "A"e2 {d}e2 a2 ab | 
ae fa fe dB | "D"d2 de fa bf | ad' ba =c'^c' af | "A"ae fa e2 ea | "E"fg af ed cB | 
"A"Ac dA =c^c AF | A8 | 
 

